src/assets/foundationPage/nonprofits.2.svg

<svg width="82" height="86" viewBox="0 0 82 86" fill="none" xmlns="http://www.w3.org/2000/svg">
<path d="M7.65991 10.5012L6.32775 7.55024C6.02422 6.89259 5.09677 6.89259 4.79324 7.55024L3.46108 10.5012L0.493236 11.8334C-0.164412 12.1369 -0.164412 13.0644 0.493236 13.3679L3.44422 14.7L4.77637 17.6679C5.0799 18.3255 6.00736 18.3255 6.31089 17.6679L7.64304 14.7169L10.6109 13.3848C11.2685 13.0812 11.2685 12.1538 10.6109 11.8502L7.65991 10.5012Z" fill="#EB850E"/>
<path d="M15.5688 2.59265L14.557 0.366765C14.3378 -0.122255 13.6296 -0.122255 13.3935 0.366765L12.3817 2.59265L10.1558 3.60441C9.66681 3.82363 9.66681 4.53187 10.1558 4.76794L12.3817 5.77971L13.3935 8.00559C13.6127 8.49461 14.3209 8.49461 14.557 8.00559L15.5688 5.77971L17.7947 4.76794C18.2837 4.54873 18.2837 3.84049 17.7947 3.60441L15.5688 2.59265Z" fill="#EB850E"/>
<path fill-rule="evenodd" clip-rule="evenodd" d="M22.8411 8.43151C27.5468 8.43151 31.55 11.4389 33.0337 15.6365H64.2699C73.2231 15.6365 80.4811 22.8945 80.4811 31.8477C80.4811 40.801 73.2231 48.059 64.2699 48.059H24.6424C19.6684 48.059 15.6361 52.0912 15.6361 57.0652C15.6361 62.0392 19.6684 66.0715 24.6424 66.0715H35.7589L31.1013 61.4138L36.196 56.3191L49.5508 69.674L36.196 83.0288L31.1013 77.9341L35.7589 73.2765H24.6424C15.6892 73.2765 8.43115 66.0184 8.43115 57.0652C8.43115 48.112 15.6892 40.854 24.6424 40.854H64.2699C69.2439 40.854 73.2761 36.8218 73.2761 31.8477C73.2761 26.8737 69.2439 22.8415 64.2699 22.8415H33.0337C31.55 27.0391 27.5468 30.0465 22.8411 30.0465C16.8723 30.0465 12.0336 25.2078 12.0336 19.239C12.0336 13.2702 16.8723 8.43151 22.8411 8.43151Z" fill="#EB850E"/>
<path d="M33.0337 15.6365V17.1365H31.9729L31.6194 16.1364L33.0337 15.6365ZM35.7589 66.0715L36.8196 65.0108L39.3802 67.5715H35.7589V66.0715ZM31.1013 61.4138L30.0406 62.4745L28.98 61.4138L30.0406 60.3532L31.1013 61.4138ZM36.196 56.3191L35.1353 55.2585L36.196 54.1978L37.2566 55.2585L36.196 56.3191ZM49.5508 69.674L50.6115 68.6133L51.6721 69.674L50.6115 70.7346L49.5508 69.674ZM36.196 83.0288L37.2566 84.0895L36.196 85.1501L35.1353 84.0895L36.196 83.0288ZM31.1013 77.9341L30.0406 78.9948L28.98 77.9341L30.0406 76.8734L31.1013 77.9341ZM35.7589 73.2765V71.7765H39.3803L36.8196 74.3371L35.7589 73.2765ZM33.0337 22.8415L31.6194 22.3416L31.9729 21.3415H33.0337V22.8415ZM31.6194 16.1364C30.341 12.5193 26.8913 9.93151 22.8411 9.93151V6.93151C28.2022 6.93151 32.7591 10.3585 34.4479 15.1366L31.6194 16.1364ZM64.2699 17.1365H33.0337V14.1365H64.2699V17.1365ZM78.9811 31.8477C78.9811 23.7229 72.3947 17.1365 64.2699 17.1365V14.1365C74.0515 14.1365 81.9811 22.0661 81.9811 31.8477H78.9811ZM64.2699 46.559C72.3947 46.559 78.9811 39.9725 78.9811 31.8477H81.9811C81.9811 41.6294 74.0515 49.559 64.2699 49.559V46.559ZM24.6424 46.559H64.2699V49.559H24.6424V46.559ZM14.1361 57.0652C14.1361 51.2628 18.84 46.559 24.6424 46.559V49.559C20.4968 49.559 17.1361 52.9196 17.1361 57.0652H14.1361ZM24.6424 67.5715C18.84 67.5715 14.1361 62.8677 14.1361 57.0652H17.1361C17.1361 61.2108 20.4968 64.5715 24.6424 64.5715V67.5715ZM35.7589 67.5715H24.6424V64.5715H35.7589V67.5715ZM32.1619 60.3532L36.8196 65.0108L34.6983 67.1321L30.0406 62.4745L32.1619 60.3532ZM37.2566 57.3798L32.1619 62.4745L30.0406 60.3532L35.1353 55.2585L37.2566 57.3798ZM48.4902 70.7346L35.1353 57.3798L37.2566 55.2585L50.6115 68.6133L48.4902 70.7346ZM35.1353 81.9681L48.4902 68.6133L50.6115 70.7346L37.2566 84.0895L35.1353 81.9681ZM32.1619 76.8734L37.2566 81.9681L35.1353 84.0895L30.0406 78.9948L32.1619 76.8734ZM36.8196 74.3371L32.1619 78.9948L30.0406 76.8734L34.6983 72.2158L36.8196 74.3371ZM24.6424 71.7765H35.7589V74.7765H24.6424V71.7765ZM9.93115 57.0652C9.93115 65.19 16.5176 71.7765 24.6424 71.7765V74.7765C14.8607 74.7765 6.93115 66.8469 6.93115 57.0652H9.93115ZM24.6424 42.354C16.5176 42.354 9.93115 48.9404 9.93115 57.0652H6.93115C6.93115 47.2836 14.8607 39.354 24.6424 39.354V42.354ZM64.2699 42.354H24.6424V39.354H64.2699V42.354ZM74.7761 31.8477C74.7761 37.6502 70.0723 42.354 64.2699 42.354V39.354C68.4155 39.354 71.7761 35.9933 71.7761 31.8477H74.7761ZM64.2699 21.3415C70.0723 21.3415 74.7761 26.0453 74.7761 31.8477H71.7761C71.7761 27.7022 68.4155 24.3415 64.2699 24.3415V21.3415ZM33.0337 21.3415H64.2699V24.3415H33.0337V21.3415ZM22.8411 28.5465C26.8913 28.5465 30.341 25.9587 31.6194 22.3416L34.4479 23.3414C32.7591 28.1195 28.2022 31.5465 22.8411 31.5465V28.5465ZM13.5336 19.239C13.5336 24.3794 17.7008 28.5465 22.8411 28.5465V31.5465C16.0439 31.5465 10.5336 26.0362 10.5336 19.239H13.5336ZM22.8411 9.93151C17.7008 9.93151 13.5336 14.0986 13.5336 19.239H10.5336C10.5336 12.4418 16.0439 6.93151 22.8411 6.93151V9.93151Z" fill="white"/>
<path fill-rule="evenodd" clip-rule="evenodd" d="M64.4294 80.0279V78.7488C66.7985 78.4099 68.8472 77.0779 70.1403 75.188C73.3822 74.7414 75.1794 71.9332 75.1794 68.0836V64.5003C75.1794 63.1809 74.1099 62.1114 72.7905 62.1114H71.2766C70.8636 61.3972 70.0915 60.9167 69.2072 60.9167H57.2628C56.3784 60.9167 55.6064 61.3972 55.1933 62.1114H53.6794C52.3601 62.1114 51.2905 63.1809 51.2905 64.5003V68.0836C51.2905 71.9332 53.0877 74.7414 56.3296 75.188C57.6227 77.0779 59.6714 78.4099 62.0405 78.7488V80.0279H60.8461C59.5267 80.0279 58.4572 81.0974 58.4572 82.4168H68.0128C68.0128 81.0974 66.9432 80.0279 65.6239 80.0279H64.4294ZM53.6794 64.5003H54.8739V70.4723C54.8739 71.0192 54.9264 71.5537 55.0266 72.0713C54.1456 71.2784 53.6794 69.9127 53.6794 68.0836V64.5003ZM71.5961 64.5003V70.4723C71.5961 71.0192 71.5436 71.5537 71.4434 72.0713C72.3244 71.2784 72.7905 69.9127 72.7905 68.0836V64.5003H71.5961ZM57.263 70.4721V63.3054H69.2074V70.4721C69.2074 73.7705 66.5336 76.4443 63.2352 76.4443C59.9368 76.4443 57.263 73.7705 57.263 70.4721Z" fill="#EB850E"/>
<ellipse cx="21.9219" cy="19.3922" rx="10.1177" ry="10.9608" fill="white"/>
<path fill-rule="evenodd" clip-rule="evenodd" d="M33.7258 17.7059C33.7258 23.7563 28.8153 28.6667 22.765 28.6667C16.7146 28.6667 11.8042 23.7563 11.8042 17.7059C11.8042 11.6556 16.7146 6.74512 22.765 6.74512C28.8153 6.74512 33.7258 11.6556 33.7258 17.7059ZM19.4761 20.1723C20.2324 20.1723 20.8462 19.5585 20.8462 18.8022C20.8462 18.0459 20.2324 17.4321 19.4761 17.4321C18.7198 17.4321 18.106 18.0459 18.106 18.8022C18.106 19.5585 18.7198 20.1723 19.4761 20.1723ZM24.683 18.8022C24.683 18.0459 25.2968 17.4321 26.0531 17.4321C26.8094 17.4321 27.4232 18.0459 27.4232 18.8022C27.4232 19.5585 26.8094 20.1723 26.0531 20.1723C25.2968 20.1723 24.683 19.5585 24.683 18.8022ZM28.793 13.3214C25.6144 13.3214 22.8303 11.6116 21.2958 9.06865C21.7671 8.99192 22.2604 8.93712 22.7646 8.93712C25.9432 8.93712 28.7272 10.647 30.2617 13.1899C29.7904 13.2666 29.2972 13.3214 28.793 13.3214ZM14.4563 14.933C16.3306 13.8698 17.7775 12.138 18.468 10.0664C16.5937 11.1296 15.1469 12.8614 14.4563 14.933ZM31.1716 15.2505C31.4017 16.0287 31.5333 16.8507 31.5333 17.7057C31.5333 22.5394 27.5983 26.4743 22.7646 26.4743C17.9309 26.4743 13.996 22.5394 13.996 17.7057C13.996 17.687 13.9973 17.6683 13.9985 17.65C14.0009 17.6148 14.0032 17.5811 13.996 17.5522C16.8458 16.4781 19.1366 14.2749 20.2875 11.469C22.3043 13.9352 25.3623 15.5135 28.7931 15.5135C29.6151 15.5135 30.4043 15.4149 31.1716 15.2505Z" fill="#EB850E"/>
</svg>

<svg width="82" height="86" fill="none" xmlns="http://www.w3.org/2000/svg"><path d="M7.66 10.501l-1.332-2.95a.843.843 0 00-1.535 0L3.461 10.5.493 11.833a.843.843 0 000 1.535L3.444 14.7l1.332 2.968a.843.843 0 001.535 0l1.332-2.951 2.968-1.332a.843.843 0 000-1.535L7.66 10.501zM15.569 2.593L14.557.367c-.22-.49-.927-.49-1.164 0l-1.011 2.226-2.226 1.011c-.49.22-.49.928 0 1.164l2.226 1.012 1.011 2.226c.22.489.928.489 1.164 0l1.012-2.226 2.226-1.012c.489-.22.489-.928 0-1.164l-2.226-1.011z" fill="#EB850E"/><path fill-rule="evenodd" clip-rule="evenodd" d="M22.841 8.432c4.706 0 8.709 3.007 10.193 7.204H64.27c8.953 0 16.211 7.259 16.211 16.212S73.223 48.059 64.27 48.059H24.642a9.006 9.006 0 100 18.013H35.76L31.1 61.413l5.095-5.095 13.355 13.355-13.355 13.355-5.095-5.095 4.658-4.657H24.642c-8.953 0-16.21-7.259-16.21-16.212s7.257-16.211 16.21-16.211H64.27a9.006 9.006 0 000-18.012H33.034c-1.484 4.197-5.487 7.205-10.193 7.205-5.969 0-10.807-4.84-10.807-10.808 0-5.969 4.838-10.807 10.807-10.807z" fill="#EB850E"/><path d="M33.034 15.636v1.5h-1.061l-.354-1 1.415-.5zm2.725 50.436l1.06-1.061 2.561 2.56H35.76v-1.5zM31.1 61.413l-1.06 1.06-1.061-1.06 1.06-1.06 1.061 1.06zm5.095-5.095l-1.06-1.06 1.06-1.061 1.06 1.06-1.06 1.061zm13.355 13.355l1.06-1.06 1.061 1.06-1.06 1.06-1.061-1.06zM36.196 83.029l1.06 1.06-1.06 1.061-1.06-1.06 1.06-1.061zm-5.095-5.095l-1.06 1.06-1.061-1.06 1.06-1.06 1.061 1.06zm4.658-4.657v-1.5h3.621l-2.56 2.56-1.061-1.06zM33.034 22.84l-1.415-.5.354-1h1.06v1.5zm-1.415-6.705a9.312 9.312 0 00-8.778-6.204v-3c5.361 0 9.918 3.426 11.607 8.205l-2.829 1zm32.65 1H33.035v-3H64.27v3zm14.712 14.712c0-8.125-6.586-14.711-14.711-14.711v-3c9.782 0 17.711 7.93 17.711 17.71h-3zM64.27 46.559c8.125 0 14.711-6.587 14.711-14.711h3c0 9.781-7.93 17.711-17.711 17.711v-3zm-39.628 0H64.27v3H24.642v-3zM14.136 57.065c0-5.802 4.704-10.506 10.506-10.506v3a7.506 7.506 0 00-7.506 7.506h-3zm10.506 10.507c-5.802 0-10.506-4.704-10.506-10.507h3a7.506 7.506 0 007.506 7.507v3zm11.117 0H24.642v-3H35.76v3zm-3.597-7.219l4.658 4.658-2.122 2.121-4.657-4.658 2.12-2.12zm5.095-2.973l-5.095 5.094-2.121-2.12 5.094-5.096 2.122 2.122zM48.49 70.735L35.135 57.38l2.122-2.122 13.355 13.355-2.122 2.122zM35.135 81.968L48.49 68.613l2.121 2.122L37.258 84.09l-2.122-2.122zm-2.973-5.095l5.095 5.095-2.122 2.121-5.094-5.094 2.12-2.122zm4.658-2.536l-4.658 4.658-2.121-2.122 4.657-4.657 2.122 2.121zm-12.178-2.56H35.76v3H24.642v-3zM9.932 57.064c0 8.125 6.586 14.712 14.71 14.712v3c-9.781 0-17.71-7.93-17.71-17.712h3zm14.71-14.711c-8.124 0-14.71 6.586-14.71 14.711h-3c0-9.781 7.929-17.711 17.71-17.711v3zm39.628 0H24.642v-3H64.27v3zm10.506-10.506c0 5.802-4.704 10.506-10.506 10.506v-3a7.506 7.506 0 007.506-7.506h3zM64.27 21.342c5.802 0 10.506 4.703 10.506 10.506h-3a7.506 7.506 0 00-7.506-7.506v-3zm-31.236 0H64.27v3H33.034v-3zM22.84 28.547c4.05 0 7.5-2.588 8.778-6.205l2.829 1c-1.689 4.777-6.246 8.205-11.607 8.205v-3zm-9.307-9.308a9.308 9.308 0 009.307 9.308v3c-6.797 0-12.307-5.51-12.307-12.308h3zm9.307-9.307a9.308 9.308 0 00-9.307 9.307h-3c0-6.797 5.51-12.307 12.307-12.307v3z" fill="#fff"/><path fill-rule="evenodd" clip-rule="evenodd" d="M64.43 80.028v-1.28a8.36 8.36 0 005.71-3.56c3.242-.447 5.04-3.255 5.04-7.104V64.5c0-1.32-1.07-2.389-2.39-2.389h-1.513a2.388 2.388 0 00-2.07-1.194H57.263c-.885 0-1.657.48-2.07 1.194H53.68a2.389 2.389 0 00-2.389 2.39v3.583c0 3.85 1.798 6.657 5.04 7.104a8.36 8.36 0 005.71 3.56v1.28h-1.194a2.389 2.389 0 00-2.389 2.389h9.556c0-1.32-1.07-2.39-2.39-2.39H64.43zM53.68 64.5h1.194v5.972c0 .547.052 1.082.153 1.6-.881-.794-1.348-2.16-1.348-3.988V64.5zm17.916 0v5.972c0 .547-.052 1.082-.153 1.6.881-.794 1.347-2.16 1.347-3.988V64.5h-1.194zm-14.333 5.972v-7.167h11.944v7.167a5.972 5.972 0 11-11.944 0z" fill="#EB850E"/><ellipse cx="21.922" cy="19.392" rx="10.118" ry="10.961" fill="#fff"/><path fill-rule="evenodd" clip-rule="evenodd" d="M33.726 17.706c0 6.05-4.91 10.96-10.961 10.96-6.05 0-10.96-4.91-10.96-10.96 0-6.05 4.91-10.96 10.96-10.96 6.05 0 10.96 4.91 10.96 10.96zm-14.25 2.466a1.37 1.37 0 100-2.74 1.37 1.37 0 000 2.74zm5.207-1.37a1.37 1.37 0 112.741.001 1.37 1.37 0 01-2.741 0zm4.11-5.48c-3.179 0-5.963-1.71-7.497-4.253a9.148 9.148 0 011.469-.132c3.178 0 5.962 1.71 7.497 4.253a9.15 9.15 0 01-1.469.131zm-14.337 1.611a8.819 8.819 0 004.012-4.867 8.82 8.82 0 00-4.012 4.867zm16.716.318c.23.778.361 1.6.361 2.455 0 4.833-3.935 8.768-8.768 8.768-4.834 0-8.769-3.935-8.769-8.768l.002-.056c.003-.035.005-.069-.002-.098a10.978 10.978 0 006.292-6.083c2.016 2.466 5.074 4.045 8.505 4.045.822 0 1.611-.1 2.379-.263z" fill="#EB850E"/></svg>
